www/assets/icons/youtube_searched_for.svg

<svg width="24" height="24" viewBox="0 0 24 24" xmlns="http://www.w3.org/2000/svg" fill='currentColor'><path d="M17.01 14.2598H16.21L15.94 13.9898C16.92 12.8498 17.51 11.3798 17.51 9.75977C17.51 6.16977 14.6 3.25977 11.01 3.25977C7.42 3.25977 4.51 6.25977 4.51 9.75977H2L5.84 13.7598L10 9.75977H6.51C6.51 7.25977 8.53 5.25977 11.01 5.25977C13.49 5.25977 15.51 7.26977 15.51 9.75977C15.51 12.2398 13.49 14.2598 11.01 14.2598C10.36 14.2598 9.75 14.1198 9.19 13.8798L7.71 15.3598C8.68 15.9298 9.8 16.2598 11.01 16.2598C12.62 16.2598 14.09 15.6698 15.23 14.6898L15.5 14.9598V15.7498L20.51 20.7398L22 19.2598L17.01 14.2598Z"/></svg>

<svg xmlns="http://www.w3.org/2000/svg" width="24" height="24" viewBox="0 0 24 24" fill='currentColor'><path d="M17.01 14.26h-.8l-.27-.27a6.45 6.45 0 0 0 1.57-4.23 6.5 6.5 0 0 0-6.5-6.5c-3.59 0-6.5 3-6.5 6.5H2l3.84 4 4.16-4H6.51a4.5 4.5 0 0 1 9 0 4.507 4.507 0 0 1-6.32 4.12l-1.48 1.48a6.47 6.47 0 0 0 7.52-.67l.27.27v.79l5.01 4.99L22 19.26z"/></svg>
